packages/ui-icons/svg/Line/external-link.svg

<svg viewBox="0 0 1920 1920" version="1.1" xmlns="http://www.w3.org/2000/svg">
    <path d="M1226.66667,267 C1314.88,267 1386.66667,338.786667 1386.66667,427 L1386.66667,427 L1386.66667,853.666667 L1280,853.666667 L1280,693.666667 L106.666667,693.666667 L106.666667,1493.66667 C106.666667,1523 130.56,1547 160,1547 L160,1547 L1226.66667,1547 C1256.10667,1547 1280,1523 1280,1493.66667 L1280,1493.66667 L1280,1280.33333 L1386.66667,1280.33333 L1386.66667,1493.66667 C1386.66667,1581.88 1314.88,1653.66667 1226.66667,1653.66667 L1226.66667,1653.66667 L160,1653.66667 C71.7866667,1653.66667 0,1581.88 0,1493.66667 L0,1493.66667 L0,427 C0,338.786667 71.7866667,267 160,267 L160,267 Z M1584.37333,709.293333 L1904.37333,1029.29333 C1925.17333,1050.09333 1925.17333,1083.90667 1904.37333,1104.70667 L1904.37333,1104.70667 L1584.37333,1424.70667 L1508.96,1349.29333 L1737.86667,1120.38667 L906.613333,1120.38667 L906.613333,1013.72 L1737.86667,1013.72 L1508.96,784.706667 L1584.37333,709.293333 Z M1226.66667,373.666667 L160,373.666667 C130.56,373.666667 106.666667,397.666667 106.666667,427 L106.666667,427 L106.666667,587 L1280,587 L1280,427 C1280,397.666667 1256.10667,373.666667 1226.66667,373.666667 L1226.66667,373.666667 Z" stroke="none" stroke-width="1" fill-rule="evenodd"/>
</svg>

<svg viewBox="0 0 1920 1920" version="1.1" xmlns="http://www.w3.org/2000/svg">
    <path d="M1280 1493.667v-213.334h106.667v213.334c0 88.213-71.787 160-160 160H160c-88.213 0-160-71.787-160-160V427c0-88.213 71.787-160 160-160h1066.667c88.213 0 160 71.787 160 160v426.667H1280v-160H106.667v800C106.667 1523 130.56 1547 160 1547h1066.667c29.44 0 53.333-24 53.333-53.333zm624.373-464.374c20.8 20.8 20.8 54.614 0 75.414l-320 320-75.413-75.414 228.907-228.906H906.613V1013.72h831.254L1508.96 784.707l75.413-75.414 320 320zM160 373.667c-29.44 0-53.333 24-53.333 53.333v160H1280V427c0-29.333-23.893-53.333-53.333-53.333H160z" stroke="none" stroke-width="1" fill-rule="evenodd"/>
</svg>
